source/img/tf-cl-percent.svg

<svg width="160" height="211" viewBox="0 0 160 211" fill="none" xmlns="http://www.w3.org/2000/svg">
<path d="M0 18.9717H160V207.972C160 209.629 158.657 210.972 157 210.972H3C1.34315 210.972 0 209.629 0 207.972V18.9717Z" fill="#AAF0D1"/>
<rect y="30" width="160" height="111" fill="#FFF1F6"/>
<path d="M0 15.5256V30C0 31.1046 0.895429 32 2 32H158C159.105 32 160 31.1046 160 30V2.96329C160 1.54589 158.566 0.577786 157.245 1.0913C132.911 10.55 106.468 15.8727 66 7.5C37.3928 1.58127 26.3013 0.0414616 1.04836 13.7706C0.408389 14.1185 0 14.7972 0 15.5256Z" fill="#FFF1F6"/>
<path d="M50.1245 80.6934C50.4663 80.6934 50.6372 81.0181 50.6372 81.6675C50.6372 82.3169 50.5404 82.8467 50.3467 83.2568C50.153 83.667 49.8853 84.0145 49.5435 84.2993C48.8485 84.8804 47.9256 85.1709 46.7749 85.1709C45.9774 85.1709 45.0716 85.0114 44.0576 84.6924C43.0436 84.362 42.2632 84.1227 41.7163 83.9746C41.1808 83.8265 40.6852 83.7524 40.2295 83.7524C39.7852 83.7524 39.4206 83.798 39.1357 83.8892C38.8623 83.9803 38.606 84.0942 38.3667 84.231C38.1388 84.3677 37.9167 84.5101 37.7002 84.6582C37.2445 84.9772 36.9312 85.1367 36.7603 85.1367C36.6007 85.1367 36.4412 85.0911 36.2817 85C36.1222 84.9089 35.9741 84.7892 35.8374 84.6411C35.5184 84.2993 35.3589 84.0316 35.3589 83.8379C35.3589 83.6442 35.4614 83.2967 35.6665 82.7954C35.883 82.2941 36.3102 81.6048 36.9482 80.7275C37.5863 79.8389 38.2926 78.9673 39.0674 78.1128C39.8421 77.2469 40.6624 76.3924 41.5283 75.5493C44.0576 73.0656 45.6982 71.425 46.4502 70.6274C47.2135 69.8299 47.8857 69.0381 48.4668 68.252C49.7314 66.5544 50.3638 65.022 50.3638 63.6548C50.3638 62.2078 49.8454 61.2736 48.8086 60.8521C48.4896 60.7267 48.0737 60.6641 47.561 60.6641C47.0597 60.6641 46.5527 60.8122 46.04 61.1084C45.5273 61.3932 45.0944 61.7578 44.7412 62.2021C44.012 63.1022 43.6475 64.0763 43.6475 65.1245C43.6475 66.0815 43.9209 66.674 44.4678 66.9019C44.6956 67.0044 44.8096 67.1525 44.8096 67.3462C44.8096 67.7563 44.6102 68.1323 44.2114 68.4741C43.4709 69.1121 42.8385 69.4312 42.3145 69.4312C41.7904 69.4312 41.3688 69.3343 41.0498 69.1406C40.7308 68.9469 40.4631 68.6906 40.2466 68.3716C39.8136 67.7336 39.5972 67.0443 39.5972 66.3037C39.5972 65.5518 39.6883 64.8796 39.8706 64.2871C40.0529 63.6947 40.3149 63.1193 40.6567 62.561C41.0099 61.9914 41.4258 61.4559 41.9043 60.9546C42.3942 60.4533 42.9411 60.0146 43.5449 59.6387C44.8779 58.8184 46.1825 58.4082 47.4585 58.4082C48.7459 58.4082 49.7599 58.5791 50.5005 58.9209C51.2524 59.2627 51.862 59.707 52.3291 60.2539C53.195 61.3021 53.6279 62.6351 53.6279 64.2529C53.6279 66.9076 52.3405 69.5907 49.7656 72.3022C48.4098 73.7264 47.0369 74.9967 45.647 76.1133L42.3999 78.728C40.634 80.1864 39.4149 81.3826 38.7427 82.3169C39.62 81.9295 40.3434 81.7188 40.9131 81.6846C41.4827 81.639 41.9442 81.6276 42.2974 81.6504C42.6619 81.6618 43.0436 81.6846 43.4424 81.7188C44.4906 81.8099 45.328 81.8555 45.9546 81.8555C46.5812 81.8555 47.1224 81.7985 47.5781 81.6846C48.0452 81.5592 48.4212 81.4225 48.7061 81.2744C49.0023 81.1263 49.2472 80.9953 49.4409 80.8813C49.6346 80.756 49.8625 80.6934 50.1245 80.6934ZM61.062 85.1709C59.2961 85.1709 57.9517 84.624 57.0288 83.5303C56.1174 82.4251 55.6616 80.813 55.6616 78.6938C55.6616 78.6938 55.6616 78.5059 55.6616 78.1299C55.6616 76.7513 55.8952 75.1619 56.3623 73.3618C56.8408 71.5617 57.3991 69.9552 58.0371 68.5425C58.6865 67.1183 59.4385 65.791 60.293 64.5605C61.1589 63.3301 62.1045 62.2591 63.1299 61.3477C65.3402 59.3994 67.6245 58.4253 69.9829 58.4253C72.478 58.4253 74.0959 59.6444 74.8364 62.0825C75.0871 62.9028 75.2124 63.6833 75.2124 64.4238C75.2124 65.1644 75.1725 66.0132 75.0928 66.9702C75.0244 67.9159 74.7909 69.1577 74.3921 70.6958C73.9933 72.2225 73.4692 73.6922 72.8198 75.105C72.1704 76.5063 71.4185 77.8223 70.564 79.0527C69.7209 80.2832 68.7923 81.3542 67.7783 82.2656C65.6022 84.2025 63.3634 85.1709 61.062 85.1709ZM71.8115 63.501C71.8115 61.5983 71.0881 60.647 69.6411 60.647C68.2739 60.647 66.7643 61.6895 65.1123 63.7744C63.5742 65.734 62.2298 68.1722 61.0791 71.0889C59.8828 74.1195 59.1935 76.9279 59.0112 79.5142C58.9429 80.5851 59.0967 81.4282 59.4727 82.0435C59.8486 82.6473 60.3613 82.9492 61.0107 82.9492C61.6715 82.9492 62.2925 82.784 62.8735 82.4536C63.4546 82.1118 64.0356 81.6447 64.6167 81.0522C65.2091 80.4598 65.7845 79.7648 66.3428 78.9673C66.901 78.1584 67.4365 77.2868 67.9492 76.3525C68.4619 75.4069 68.9347 74.4157 69.3677 73.3789C69.812 72.3421 70.2051 71.2939 70.5469 70.2344C71.39 67.5798 71.8115 65.4492 71.8115 63.8428V63.501ZM92.8833 67.6367C92.8833 68.8786 92.12 71.049 90.5933 74.1479C91.0376 74.1138 91.3737 74.0967 91.6016 74.0967C91.8294 74.0967 92.0459 74.165 92.251 74.3018C92.4561 74.4271 92.644 74.5866 92.8149 74.7803C93.2023 75.236 93.396 75.5949 93.396 75.8569C93.396 76.119 93.339 76.2956 93.2251 76.3867C93.1112 76.4779 92.8947 76.5007 92.5757 76.4551C92.0288 76.3753 91.4933 76.3354 90.9692 76.3354H89.9438C89.7957 76.3354 89.6419 76.3411 89.4824 76.3525C88.1608 78.7793 87.1696 80.5452 86.5088 81.6504C85.1074 83.986 83.9396 85.1538 83.0054 85.1538C82.5382 85.1538 82.3047 84.943 82.3047 84.5215C82.3047 84.0771 82.5098 83.5189 82.9199 82.8467C83.387 81.9808 83.8713 81.0067 84.3726 79.9243L85.8594 76.6089C83.763 76.7912 82.3958 76.8823 81.7578 76.8823C80.5387 76.8823 79.7127 76.8197 79.2798 76.6943C78.8582 76.569 78.5278 76.3981 78.2886 76.1816C78.0607 75.9652 77.8556 75.7145 77.6733 75.4297C77.2974 74.8258 77.1151 74.3416 77.1265 73.9771C77.1493 73.6011 77.286 73.1624 77.5366 72.6611L79.7925 68.4912C81.604 65.0163 82.6351 61.8604 82.8857 59.0234C82.9313 58.6133 83.2503 58.4082 83.8428 58.4082C84.4808 58.4082 85.0049 58.5677 85.415 58.8867C86.1898 59.502 86.5771 60.1457 86.5771 60.8179C86.5771 61.4787 86.4746 62.1737 86.2695 62.9028C86.0645 63.6206 85.791 64.3783 85.4492 65.1758C85.1074 65.9619 84.7144 66.7765 84.27 67.6196C83.8257 68.4513 83.37 69.266 82.9028 70.0635C81.661 72.0459 80.7609 73.4416 80.2026 74.2505C80.647 74.5011 81.3761 74.6265 82.3901 74.6265C83.8826 74.6265 85.3353 74.5752 86.748 74.4727L87.5171 72.4902C88.269 70.5762 88.7248 69.1919 88.8843 68.3374C89.1463 67.3804 89.3286 66.6569 89.4312 66.167C89.5337 65.6657 89.6818 65.415 89.8755 65.415C90.6047 65.415 91.2939 65.66 91.9434 66.1499C92.57 66.6284 92.8833 67.124 92.8833 67.6367ZM101.326 83.1201C100.813 83.7809 100.334 84.2708 99.8901 84.5898C99.4458 84.9089 98.9274 85.0684 98.335 85.0684C97.7425 85.0684 97.4463 84.869 97.4463 84.4702C97.4463 84.1398 97.6001 83.7581 97.9077 83.3252C98.2267 82.8809 98.466 82.5562 98.6255 82.3511C98.785 82.1346 99.1325 81.696 99.668 81.0352C110.309 67.9102 115.932 61.0002 116.536 60.3052C117.493 59.0177 118.569 58.374 119.766 58.374C120.324 58.374 120.603 58.5563 120.603 58.9209C120.603 59.4222 120.056 60.3906 118.962 61.8262L115.801 65.7568L105.376 78.3691L101.326 83.1201ZM104.504 70.0293C103.958 70.4281 103.371 70.7471 102.744 70.9863C102.129 71.2142 101.485 71.3281 100.813 71.3281C100.152 71.3281 99.5426 71.237 98.9844 71.0547C98.4375 70.861 97.959 70.5762 97.5488 70.2002C96.7057 69.3913 96.2842 68.195 96.2842 66.6113C96.2842 64.6973 97.019 62.8743 98.4888 61.1426C100.027 59.3311 101.799 58.4253 103.804 58.4253C105.82 58.4253 107.159 59.3026 107.82 61.0571C108.048 61.661 108.162 62.3218 108.162 63.0396C108.162 63.7573 108.07 64.4352 107.888 65.0732C107.717 65.7113 107.472 66.3322 107.153 66.936C106.834 67.5399 106.447 68.1095 105.991 68.645C105.547 69.1691 105.051 69.6305 104.504 70.0293ZM100.762 69.4482C101.354 69.4482 101.981 69.021 102.642 68.1665C103.61 66.936 104.282 65.4264 104.658 63.6377C104.772 63.0908 104.829 62.6408 104.829 62.2876C104.829 61.9344 104.812 61.6496 104.778 61.4331C104.755 61.2052 104.704 61.0059 104.624 60.835C104.43 60.4818 104.157 60.3052 103.804 60.3052C103.451 60.3052 103.126 60.4134 102.83 60.6299C102.533 60.835 102.231 61.1255 101.924 61.5015C101.628 61.866 101.337 62.2933 101.052 62.7832C100.767 63.2617 100.511 63.7744 100.283 64.3213C99.8047 65.529 99.5654 66.6854 99.5654 67.7905C99.5654 68.8957 99.9642 69.4482 100.762 69.4482ZM110.298 82.5732C110.07 81.9808 109.956 81.3257 109.956 80.6079C109.956 79.8901 110.042 79.2122 110.212 78.5742C110.395 77.9248 110.651 77.2982 110.981 76.6943C111.312 76.0905 111.705 75.5208 112.161 74.9854C112.616 74.4499 113.123 73.9827 113.682 73.584C114.889 72.7067 116.154 72.2681 117.476 72.2681C119.492 72.2681 120.831 73.1453 121.492 74.8999C121.72 75.5037 121.833 76.1646 121.833 76.8823C121.833 77.6001 121.742 78.278 121.56 78.916C121.389 79.554 121.144 80.175 120.825 80.7788C120.506 81.3826 120.119 81.9523 119.663 82.4878C119.219 83.0119 118.723 83.4733 118.176 83.8721C116.991 84.738 115.761 85.1709 114.485 85.1709C112.332 85.1709 110.936 84.305 110.298 82.5732ZM114.434 83.291C115.026 83.291 115.653 82.8638 116.313 82.0093C117.282 80.7788 117.954 79.2692 118.33 77.4805C118.444 76.9336 118.501 76.4836 118.501 76.1304C118.501 75.7772 118.484 75.4924 118.45 75.2759C118.427 75.048 118.376 74.8486 118.296 74.6777C118.102 74.3245 117.829 74.1479 117.476 74.1479C117.122 74.1479 116.798 74.2562 116.501 74.4727C116.205 74.6777 115.903 74.9683 115.596 75.3442C115.299 75.7088 115.009 76.1361 114.724 76.626C114.439 77.1045 114.183 77.6172 113.955 78.1641C113.477 79.3717 113.237 80.5282 113.237 81.6333C113.237 82.7384 113.636 83.291 114.434 83.291Z" fill="#FF689E"/>
</svg>

<svg width="160" height="211" fill="none" xmlns="http://www.w3.org/2000/svg"><path d="M0 18.972h160v189a3 3 0 01-3 3H3a3 3 0 01-3-3v-189z" fill="#AAF0D1"/><path fill="#FFF1F6" d="M0 30h160v111H0z"/><path d="M0 15.526V30a2 2 0 002 2h156a2 2 0 002-2V2.963c0-1.417-1.434-2.385-2.755-1.872C132.911 10.55 106.468 15.873 66 7.5 37.393 1.581 26.301.041 1.048 13.77A2.01 2.01 0 000 15.527z" fill="#FFF1F6"/><path d="M50.124 80.693c.342 0 .513.325.513.975 0 .649-.097 1.179-.29 1.589-.194.41-.462.757-.803 1.042-.695.581-1.618.872-2.77.872-.797 0-1.702-.16-2.716-.479a52.233 52.233 0 00-2.342-.717 5.605 5.605 0 00-1.486-.223c-.445 0-.81.046-1.094.137-.274.091-.53.205-.77.342-.227.137-.45.28-.666.427-.456.32-.769.479-.94.479a.958.958 0 01-.478-.137 1.863 1.863 0 01-.445-.359c-.319-.342-.478-.61-.478-.803 0-.194.102-.541.307-1.043.217-.5.644-1.19 1.282-2.067a29.594 29.594 0 012.12-2.615 51.606 51.606 0 012.46-2.564c2.53-2.483 4.17-4.124 4.922-4.922a24.61 24.61 0 002.017-2.375c1.264-1.698 1.897-3.23 1.897-4.597 0-1.447-.519-2.381-1.555-2.803-.32-.125-.735-.188-1.248-.188-.501 0-1.008.148-1.521.444a4.32 4.32 0 00-1.299 1.094c-.729.9-1.093 1.874-1.093 2.922 0 .958.273 1.55.82 1.778.228.102.342.25.342.444 0 .41-.2.786-.599 1.128-.74.638-1.372.957-1.896.957-.525 0-.946-.097-1.265-.29a2.584 2.584 0 01-.803-.77 3.611 3.611 0 01-.65-2.067c0-.752.091-1.424.274-2.017a7.556 7.556 0 01.786-1.726 9.796 9.796 0 011.247-1.606 8.751 8.751 0 011.64-1.316c1.334-.82 2.639-1.23 3.915-1.23 1.287 0 2.3.17 3.041.512.752.342 1.362.786 1.83 1.333.865 1.048 1.298 2.381 1.298 3.999 0 2.655-1.288 5.338-3.862 8.05a42.185 42.185 0 01-4.119 3.81L42.4 78.728c-1.766 1.458-2.985 2.655-3.657 3.589.877-.387 1.6-.598 2.17-.632a10.01 10.01 0 011.384-.035c.365.012.747.035 1.145.069 1.049.09 1.886.137 2.513.137.626 0 1.167-.057 1.623-.171a5.816 5.816 0 001.128-.41c.296-.149.541-.28.735-.394a1.23 1.23 0 01.683-.188zm10.938 4.478c-1.766 0-3.11-.547-4.033-1.64-.912-1.106-1.367-2.718-1.367-4.837v-.564c0-1.379.233-2.968.7-4.768.479-1.8 1.037-3.407 1.675-4.82a25.536 25.536 0 012.256-3.981 18.568 18.568 0 012.837-3.213c2.21-1.949 4.494-2.923 6.853-2.923 2.495 0 4.113 1.22 4.853 3.658.251.82.376 1.6.376 2.34 0 .741-.04 1.59-.12 2.547-.068.946-.301 2.188-.7 3.726a26.68 26.68 0 01-1.572 4.409 26.263 26.263 0 01-2.256 3.948 17.879 17.879 0 01-2.786 3.213c-2.176 1.936-4.415 2.905-6.716 2.905zm10.75-21.67c0-1.903-.724-2.854-2.17-2.854-1.368 0-2.878 1.043-4.53 3.127-1.538 1.96-2.882 4.398-4.033 7.315-1.196 3.03-1.886 5.839-2.068 8.425-.068 1.071.086 1.914.462 2.53.376.603.888.905 1.538.905.66 0 1.281-.165 1.862-.495.582-.342 1.163-.81 1.744-1.402a15.556 15.556 0 001.726-2.085 30.074 30.074 0 001.606-2.614 32.51 32.51 0 001.419-2.974 36.187 36.187 0 001.179-3.145c.843-2.654 1.264-4.785 1.264-6.391V63.5zm21.071 4.136c0 1.242-.763 3.412-2.29 6.51.445-.033.78-.05 1.009-.05.227 0 .444.068.649.205.205.125.393.285.564.478.387.456.581.815.581 1.077s-.057.439-.17.53c-.115.09-.331.114-.65.068a11.12 11.12 0 00-1.607-.12h-1.025c-.148 0-.302.006-.462.018-1.321 2.426-2.312 4.192-2.973 5.297-1.402 2.336-2.57 3.504-3.504 3.504-.467 0-.7-.211-.7-.632 0-.445.205-1.003.615-1.675.467-.866.951-1.84 1.453-2.923l1.486-3.315c-2.096.182-3.463.273-4.101.273-1.22 0-2.045-.062-2.478-.188-.422-.125-.752-.296-.991-.512a4.016 4.016 0 01-.616-.752c-.376-.604-.558-1.088-.547-1.453.023-.376.16-.815.41-1.316l2.257-4.17c1.811-3.475 2.842-6.63 3.093-9.468.045-.41.364-.615.957-.615.638 0 1.162.16 1.572.479.775.615 1.162 1.259 1.162 1.93a7.7 7.7 0 01-.308 2.086 19.146 19.146 0 01-.82 2.273c-.342.786-.735 1.6-1.179 2.444-.444.831-.9 1.646-1.367 2.444-1.242 1.982-2.142 3.378-2.7 4.187.444.25 1.173.375 2.187.375a60.23 60.23 0 004.358-.153l.77-1.983c.751-1.914 1.207-3.298 1.366-4.153.262-.957.445-1.68.547-2.17.103-.501.25-.752.445-.752.729 0 1.418.245 2.067.735.627.478.94.974.94 1.487zm8.443 15.483c-.513.66-.992 1.15-1.436 1.47-.444.319-.963.478-1.555.478s-.889-.199-.889-.598c0-.33.154-.712.462-1.145.319-.444.558-.769.718-.974.159-.216.506-.655 1.042-1.316C110.309 67.91 115.932 61 116.536 60.305c.957-1.287 2.033-1.931 3.23-1.931.558 0 .837.182.837.547 0 .501-.547 1.47-1.641 2.905l-3.161 3.93-10.425 12.613-4.05 4.751zm3.178-13.09a7.511 7.511 0 01-1.76.956 5.514 5.514 0 01-1.931.342 5.86 5.86 0 01-1.829-.273 4.148 4.148 0 01-1.435-.855c-.843-.809-1.265-2.005-1.265-3.589 0-1.914.735-3.737 2.205-5.468 1.538-1.812 3.31-2.718 5.315-2.718 2.016 0 3.355.878 4.016 2.632a5.57 5.57 0 01.342 1.983 7.38 7.38 0 01-.274 2.033 8.924 8.924 0 01-.735 1.863 9.41 9.41 0 01-1.162 1.709 8.5 8.5 0 01-1.487 1.384zm-3.742-.582c.592 0 1.219-.427 1.88-1.281.968-1.231 1.64-2.74 2.016-4.53.114-.546.171-.996.171-1.35a5.73 5.73 0 00-.051-.854 1.84 1.84 0 00-.154-.598c-.194-.353-.467-.53-.82-.53-.353 0-.678.108-.974.325-.297.205-.599.495-.906.871-.296.365-.587.792-.872 1.282-.285.479-.541.991-.769 1.538-.478 1.208-.718 2.364-.718 3.47 0 1.105.4 1.657 1.197 1.657zm9.536 13.125a5.43 5.43 0 01-.342-1.965c0-.718.086-1.396.256-2.034a9 9 0 01.769-1.88 10.17 10.17 0 011.18-1.709 8.366 8.366 0 011.521-1.401c1.207-.877 2.472-1.316 3.794-1.316 2.016 0 3.355.877 4.016 2.632a5.57 5.57 0 01.341 1.982c0 .718-.091 1.396-.273 2.034a8.926 8.926 0 01-.735 1.863 9.413 9.413 0 01-1.162 1.709c-.444.524-.94.985-1.487 1.384-1.185.866-2.415 1.299-3.691 1.299-2.153 0-3.549-.866-4.187-2.598zm4.136.718c.592 0 1.219-.427 1.879-1.282.969-1.23 1.641-2.74 2.017-4.528.114-.547.171-.997.171-1.35 0-.354-.017-.639-.051-.855a1.84 1.84 0 00-.154-.598c-.194-.353-.467-.53-.82-.53-.354 0-.678.108-.975.325a4.546 4.546 0 00-.905.871 9.958 9.958 0 00-.872 1.282c-.285.478-.541.991-.769 1.538-.478 1.208-.718 2.364-.718 3.47 0 1.104.399 1.657 1.197 1.657z" fill="#FF689E"/></svg>
